X:0883
T:Since then I'm Doom'd
M:2/4
L:1/8
Q:1/4=90
I: ||
Z:Jack Campin * www.campin.me.uk * 2009
K:D
A|dc   e2 |d2  z   A    |df``Bg         |(f2 e)
A|f2   ed |d2  A```A    |g2 (f/a/)(g/f/)| e2 z
e|f2 (^ga)|e2  d/f/d/B/ |A2 TB>A        | A2 z
A|f2   ed |d2  A```A    |g2 (f/a/)(g/f/)| e2 e
a|ac```cc |d2 (B/c/d/e/)|d2  ed         | d3 |]
<end>
<start>
